!!! OTL: Berkowitz451
!!! Chapter: 1
!!! Section: IV
!!! Page: 112
!!! Mode: 
!!! Encoder: DJB
**kern
*staff1
*I"Piano
=1-
*clefF4
*k[b-e-a-]
*E-:
*M3/4
4r
4r
8.BB-/L
16BB-/Jk
=2
[4G\
12G\L]
12A-\
12G\J
12G\L
12F\
12E-\J
=3
8D/L
8C/J
4C/
8.C/L
16C/Jk
=4
[4A-\
12A-\L]
12B-\
12A-\J
12G\L
12F\
12E-\J
=5
4E-\
4D\
8.BB-/L
16BB-/Jk
=6
[4B-\
12B-\L]
12c\
12B-\J
12A-\L
12F\
12G\J
=7
12A-\L
12B-\
12A-\J
4G\
8.E-\L
16F\Jk
=8
!!linebreak:original
[4G-\
12G-\L]
12F\
12G-\J
16A-\LL
16G-\
16F\
16E-\JJ
=9
4E-\
4D\
8.BB-/L
16BB-/Jk
=10
[4c\
12c\L]
12d\
12c\J
4B-\
=11
[4c-\
12c-\L]
12d-\
12c-\J
4B-\
=12
8r
8c-\
8A-\L
8F\J
8D/L
8BB-/J
=13
[4G\
12G\L]
12A-\
12G\J
8F\L
8B-\J
=14
4E-\
2r
==
*-
